places/16/folder-tar.svg

<?xml version="1.0" encoding="UTF-8"?>
<!-- Created with Inkscape (http://www.inkscape.org/) -->
<svg width="16" height="16" version="1.1" xmlns="http://www.w3.org/2000/svg" xmlns:cc="http://creativecommons.org/ns#" xmlns:dc="http://purl.org/dc/elements/1.1/" xmlns:rdf="http://www.w3.org/1999/02/22-rdf-syntax-ns#">
	<defs>
		<radialGradient id="b" cx="-9356.7" cy="5054.1" r="9" gradientTransform="matrix(1.3784 0 0 1.2111 12905 -6115.9)" gradientUnits="userSpaceOnUse">
			<stop stop-color="#213851" stop-opacity=".9059" offset="0"/>
			<stop stop-color="#27303a" stop-opacity="0" offset="1"/>
		</radialGradient>
		<radialGradient id="a" cx="34.118" cy="13.139" r="9.0713" gradientTransform="matrix(1.6537 0 0 1.4274 -48.42 -13.755)" gradientUnits="userSpaceOnUse">
			<stop stop-color="#ffffff" stop-opacity=".8252" offset="0"/>
			<stop stop-color="#ffffff" stop-opacity=".6051" offset="1"/>
		</radialGradient>
	</defs>
	<metadata>
		<rdf:RDF>
			<cc:Work rdf:about="">
				<dc:format>image/svg+xml</dc:format>
				<dc:type rdf:resource="http://purl.org/dc/dcmitype/StillImage"/>
				<dc:title/>
			</cc:Work>
		</rdf:RDF>
	</metadata>
	<path d="m3 1c-1.108 0-2 0.892-2 2v1h5v-1h2v-1h-2v-1zm5 1h2v1h-2v1h7v-1c0-1.108-0.892-2-2-2h-5zm-7 3v8c0 1.108 0.892 2 2 2h3v-1h2v-1h-2v-1h2v-1h-2v-1h2v-1h-2v-1h2v-1h-2v-1h2v-1zm7 1v1h2v1h-2v1h2v1h-2v1h2v1h-2v1h2v1h-2v1h5c1.108 0 2-0.892 2-2v-8h-5v1z" color="#000000" fill="#090d11" fill-opacity=".76621" style="paint-order:normal"/>
	<path d="m3 1c-1.108 0-2 0.892-2 2v1h5v-1h2v-1h-2v-1zm5 1h2v1h-2v1h7v-1c0-1.108-0.892-2-2-2h-5zm-7 3v8c0 1.108 0.892 2 2 2h3v-1h2v-1h-2v-1h2v-1h-2v-1h2v-1h-2v-1h2v-1h-2v-1h2v-1zm7 1v1h2v1h-2v1h2v1h-2v1h2v1h-2v1h2v1h-2v1h5c1.108 0 2-0.892 2-2v-8h-5v1z" color="#000000" fill="url(#b)" style="font-variant-east_asian:normal;paint-order:normal"/>
	<path d="m3 0c-1.6447 0-3 1.3553-3 3v1 1 8c0 1.6447 1.3553 3 3 3h4 6c1.6447 0 3-1.3553 3-3v-8-1-1c0-1.6447-1.3553-3-3-3h-6-4zm0 1h3v1h2v-1h5c1.108 0 2 0.892 2 2v1h-7v-1h-2v1h-5v-1c0-1.108 0.892-2 2-2zm5 2h2v-1h-2v1zm-7 2h7v1h2v-1h5v8c0 1.108-0.892 2-2 2h-5v-1h-2v1h-3c-1.108 0-2-0.892-2-2v-8zm7 9h2v-1h-2v1zm0-1v-1h-2v1h2zm0-1h2v-1h-2v1zm0-1v-1h-2v1h2zm0-1h2v-1h-2v1zm0-1v-1h-2v1h2zm0-1h2v-1h-2v1zm0-1v-1h-2v1h2z" color="#000000" color-rendering="auto" dominant-baseline="auto" fill="url(#a)" image-rendering="auto" shape-rendering="auto" solid-color="#000000" style="font-feature-settings:normal;font-variant-alternates:normal;font-variant-caps:normal;font-variant-east_asian:normal;font-variant-ligatures:normal;font-variant-numeric:normal;font-variant-position:normal;isolation:auto;mix-blend-mode:normal;paint-order:normal;shape-padding:0;text-decoration-color:#000000;text-decoration-line:none;text-decoration-style:solid;text-indent:0;text-orientation:mixed;text-transform:none;white-space:normal"/>
</svg>

<?xml version="1.0" encoding="UTF-8" standalone="no"?>
<!-- Created with Inkscape (http://www.inkscape.org/) -->

<svg
   xmlns:dc="http://purl.org/dc/elements/1.1/"
   xmlns:cc="http://creativecommons.org/ns#"
   xmlns:rdf="http://www.w3.org/1999/02/22-rdf-syntax-ns#"
   xmlns:svg="http://www.w3.org/2000/svg"
   xmlns="http://www.w3.org/2000/svg"
   xmlns:sodipodi="http://sodipodi.sourceforge.net/DTD/sodipodi-0.dtd"
   xmlns:inkscape="http://www.inkscape.org/namespaces/inkscape"
   version="1.1"
   width="16"
   height="16"
   id="svg2"
   inkscape:version="0.48.3.1 r9886"
   sodipodi:docname="folder-tar.svg">
  <sodipodi:namedview
     pagecolor="#ffffff"
     bordercolor="#666666"
     borderopacity="1"
     objecttolerance="10"
     gridtolerance="10"
     guidetolerance="10"
     inkscape:pageopacity="0"
     inkscape:pageshadow="2"
     inkscape:window-width="1920"
     inkscape:window-height="1027"
     id="namedview6"
     showgrid="true"
     inkscape:zoom="41.7193"
     inkscape:cx="10.195154"
     inkscape:cy="7.8406082"
     inkscape:window-x="-10"
     inkscape:window-y="31"
     inkscape:window-maximized="1"
     inkscape:current-layer="svg2"
     inkscape:snap-bbox="true"
     inkscape:bbox-paths="true"
     inkscape:bbox-nodes="true"
     inkscape:snap-bbox-edge-midpoints="true"
     inkscape:snap-bbox-midpoints="true"
     inkscape:object-paths="true"
     inkscape:snap-intersection-paths="true"
     inkscape:object-nodes="true"
     inkscape:snap-smooth-nodes="true"
     inkscape:snap-object-midpoints="true"
     inkscape:snap-center="true"
     inkscape:snap-midpoints="true">
    <inkscape:grid
       type="xygrid"
       id="grid2982" />
  </sodipodi:namedview>
  <defs
     id="defs4" />
  <metadata
     id="metadata7">
    <rdf:RDF>
      <cc:Work
         rdf:about="">
        <dc:format>image/svg+xml</dc:format>
        <dc:type
           rdf:resource="http://purl.org/dc/dcmitype/StillImage" />
        <dc:title />
      </cc:Work>
    </rdf:RDF>
  </metadata>
  <path
     style="font-size:medium;font-style:normal;font-variant:normal;font-weight:normal;font-stretch:normal;text-indent:0;text-align:start;text-decoration:none;line-height:normal;letter-spacing:normal;word-spacing:normal;text-transform:none;direction:ltr;block-progression:tb;writing-mode:lr-tb;text-anchor:start;baseline-shift:baseline;color:#000000;fill:#f1f3f5;fill-opacity:0.90288714000000003;fill-rule:nonzero;stroke:none;stroke-width:2;marker:none;visibility:visible;display:inline;overflow:visible;enable-background:accumulate;font-family:Sans;-inkscape-font-specification:Sans"
     d="M 0 0 L 0 1 L 0 4 L 0 5 L 0 15 L 0 16 L 1 16 L 6 16 L 7 16 L 8 16 L 15 16 L 16 16 L 16 15 L 16 5 L 16 4 L 16 1 L 16 0 L 15 0 L 8 0 L 7 0 L 6 0 L 1 0 L 0 0 z M 1 1 L 6 1 L 6 2 L 8 2 L 8 1 L 15 1 L 15 4 L 8 4 L 8 3 L 6 3 L 6 4 L 1 4 L 1 1 z M 8 3 L 10 3 L 10 2 L 8 2 L 8 3 z M 1 5 L 8 5 L 8 6 L 10 6 L 10 5 L 15 5 L 15 15 L 8 15 L 8 14 L 6 14 L 6 15 L 1 15 L 1 5 z M 8 14 L 10 14 L 10 13 L 8 13 L 8 14 z M 8 13 L 8 12 L 6 12 L 6 13 L 8 13 z M 8 12 L 10 12 L 10 11 L 8 11 L 8 12 z M 8 11 L 8 10 L 6 10 L 6 11 L 8 11 z M 8 10 L 10 10 L 10 9 L 8 9 L 8 10 z M 8 9 L 8 8 L 6 8 L 6 9 L 8 9 z M 8 8 L 10 8 L 10 7 L 8 7 L 8 8 z M 8 7 L 8 6 L 6 6 L 6 7 L 8 7 z "
     id="rect3014" />
  <path
     sodipodi:nodetypes="cccccccccccccccccccccccccccccccccccccccccccccccccccccccccccccccc"
     inkscape:connector-curvature="0"
     id="path2983"
     d="M 1,1 1,4 6,4 6,3 8,3 8,2 6,2 6,1 z m 7,1 2,0 0,1 -2,0 0,1 7,0 0,-3 -7,0 z m -7,3 0,10 5,0 0,-1 2,0 0,-1 -2,0 0,-1 2,0 0,-1 -2,0 0,-1 2,0 L 8,9 6,9 6,8 8,8 8,7 6,7 6,6 8,6 8,5 z m 7,1 0,1 2,0 0,1 -2,0 0,1 2,0 0,1 -2,0 0,1 2,0 0,1 -2,0 0,1 2,0 0,1 -2,0 0,1 7,0 0,-10 -5,0 0,1 z"
     style="color:#000000;fill:#27303a;fill-opacity:0.753280819999999968;fill-rule:nonzero;stroke:none;stroke-width:1;marker:none;visibility:visible;display:inline;overflow:visible;enable-background:accumulate" />
</svg>
